X:22
T:Country Dance. RDO.22
M:2/4
L:1/16
Q:1/4=100
S:Robert D. Owen MS,Indiana,1826.
R:.misc.
O:Indiana,USA
A:New Harmony
Z:vmp.Chris Partington
K:Bb
B2dB F2d2|B2dB F2d2|f2gf edcB|ABcA F2f2|!
B2dB F2d2|B2dB F2d2|f2gf edcB|ABcA B4:|!
|:FAcA ecAc|BABc dBAB|FAcA ecAc|B2d2F4|!
FAcA ecAc|BABc dBAB|FAcA ecAc|B2d2B4:|!
|:b2ag f2d2|e2fg f2d2|g2e2 c2f2|edcdB4|!
b2ag f2d2|e2fg f2d2|g2e2c2f2|d2B2B4:|

